svg/windows.svg

<svg viewBox="0 0 20 20" xmlns="http://www.w3.org/2000/svg">
<rect width="100%" height="100%" fill="#0078D4"/>
<path d="M3 3H9.63569V9.63569H3V3Z" fill="white"/>
<path d="M10.3638 3H16.9995V9.63569H10.3638V3Z" fill="white"/>
<path d="M9.63569 10.3643H3V17H9.63569V10.3643Z" fill="white"/>
<path d="M10.3638 10.3643H16.9995V17H10.3638V10.3643Z" fill="white"/>
</svg>

<svg xmlns="http://www.w3.org/2000/svg" viewBox="0 0 20 20">
  <rect width="100%" height="100%" fill="#0078D4"/>
  <path fill="#fff" d="M3 3h6.64v6.64H3V3ZM10.36 3H17v6.64h-6.64V3ZM9.64 10.36H3V17h6.64v-6.64ZM10.36 10.36H17V17h-6.64v-6.64Z"/>
</svg>
